X:1
T:"Ah, vous dirai-je maman"
T:W. A. Mozart
T:"Ah, vous dirai-je maman" Variation II 
T:or "Twinkle Twinkle, Little Star"
C:W. A. Mozart
%%score { ( 1 3 4 ) | ( 2 5 ) }
L:1/8
Q:1/4=144
M:2/4
K:C
V:1 treble nm="Piano" snm="Pno."
V:3 treble 
V:4 treble 
V:2 bass 
V:5 bass 
V:1
 c2 c2 | [cg]2 [cg]2- | g2 f2- | f2 ((e2 | [cef]2)) [Gd-f]2 | [Gde]2 [Ace]2 | [Acd]2 [GBd]>F | %7
 [EGc]2 z2 :: [cg]2 [cg]2 | [cf]2 [cf]2 | [ce]>d [ce]>f | (e2 d2) | [cg]2 [cg]2 | [cf]2 [Bf]2 | %14
 [Ge]>d [Ge]>f | (e2 d2) | [EGc]2 Tc3/2B/4c/4 | g2 [c-g]2 | [cga]2 [cfa]2 | [cfg]2 [_Be-g]2 | %20
 [Ae^f]2 [_Ad-=f]2 | [Gde]2 [Ace]2 | [Acd]2 [Bd]2 | [EGc]2 z2 :| %24
V:2
"_legato" C,/C/B,/C/ D/C/B,/C/ | C,/C/B,/C/ D/C/B,/C/ | F,/C/B,/C/ D/C/B,/C/ | %3
 C,/C/B,/C/ D/C/B,/C/ | A,,/A,/^G,/A,/ B,,/B,/^A,/B,/ | C,/C/B,/C/ A,,/A,/^G,/A,/ | %6
 F,,/F,/E,/F,/ G,,/G,/^F,/G,/ | C,,2 C,2 :: z4 | z4 | z4 | z4 | z4 | z4 | x4 | x4 | x4 | x4 | x4 | %19
 x4 | x4 | x4 | x4 | x4 :| %24
V:3
 x4 | x4 | a4 | g4 | x4 | x4 | x4 | x4 :: G,/E/^D/E/ F/E/D/E/ | G,/D/^C/D/ E/D/C/D/ | %10
 G,/G/^F/G/ A/G/F/G/ | G,/F/E/F/ G/F/E/F/ | G,/E/^D/E/ F/E/D/E/ | G,/D/^C/D/ E/D/C/D/ | x4 | x4 | %16
 x4 | x4 | x4 | x4 | x4 | x4 | x4 | x4 :| %24
V:4
 x4 | x4 | c4 | c4 | x4 | x4 | x4 | x4 :: x4 | x4 | x4 | B4 | x4 | x4 | x4 | G4 | x4 | x4 | x4 | %19
 x4 | x4 | x4 | x2 G>F | x4 :| %24
V:5
 x4 | x4 | x4 | x4 | x4 | x4 | x4 | x4 :: x4 | x4 | x4 | x4 | x4 | x4 | G,/C/B,/C/ D/C/B,/C/ | %15
 G,/B,/^A,/B,/ C/B,/A,/B,/ | C,/C/B,/C/ D/C/B,/C/ | C,/C/B,/C/ D/C/B,/C/ | F,/C/B,/C/ D/C/B,/C/ | %19
 C,/C/B,/C/ ^C,/^C/B,/C/ | D,/D/^C/D/ B,,/B,/^A,/B,/ | C,/C/B,/C/ A,,/A,/^G,/A,/ | %22
 F,,/F,/E,/F,/ G,,/G,/^F,/G,/ | C,,2 C,2 :| %24

